static/img/in-field/btn-overview-dark.svg

<svg width="961" height="96" viewBox="0 0 961 96" fill="none" xmlns="http://www.w3.org/2000/svg">
<rect width="961" height="96" fill="#353A40"/>
<rect x="319.5" y="20" width="156" height="56" rx="4" fill="#7D808D"/>
<g clip-path="url(#clip0_6784_87177)">
<path d="M362.033 41.6001L357.9 37.4668L351.5 43.8668L345.1 37.4668L340.967 41.6001L347.367 48.0001L340.967 54.4001L345.1 58.5335L351.5 52.1335L357.9 58.5335L362.033 54.4001L355.633 48.0001L362.033 41.6001Z" fill="white"/>
<path d="M390.829 48.9971C390.829 51.5824 390.091 53.5625 388.616 54.9375C387.148 56.3125 385.025 57 382.246 57H377.799V41.2949H382.729C385.293 41.2949 387.284 41.9717 388.702 43.3252C390.12 44.6787 390.829 46.5693 390.829 48.9971ZM387.37 49.083C387.37 45.71 385.881 44.0234 382.901 44.0234H381.129V54.25H382.558C385.766 54.25 387.37 52.5277 387.37 49.083ZM399.05 47.0957C398.355 47.0957 397.811 47.3177 397.417 47.7617C397.023 48.1986 396.798 48.8216 396.74 49.6309H401.338C401.324 48.8216 401.112 48.1986 400.704 47.7617C400.296 47.3177 399.744 47.0957 399.05 47.0957ZM399.512 57.2148C397.578 57.2148 396.067 56.6813 394.979 55.6143C393.89 54.5472 393.346 53.0361 393.346 51.0811C393.346 49.0687 393.847 47.5146 394.85 46.4189C395.859 45.3161 397.252 44.7646 399.028 44.7646C400.726 44.7646 402.047 45.248 402.992 46.2148C403.938 47.1816 404.41 48.5173 404.41 50.2217V51.8115H396.665C396.701 52.7425 396.977 53.4694 397.492 53.9922C398.008 54.515 398.731 54.7764 399.662 54.7764C400.385 54.7764 401.069 54.7012 401.714 54.5508C402.358 54.4004 403.032 54.1605 403.733 53.8311V56.3662C403.16 56.6527 402.548 56.8639 401.896 57C401.245 57.1432 400.45 57.2148 399.512 57.2148ZM413.963 47.4502H411.127V57H407.851V47.4502H406.046V45.8711L407.851 44.9902V44.1094C407.851 42.7415 408.187 41.7425 408.86 41.1123C409.534 40.4821 410.611 40.167 412.094 40.167C413.225 40.167 414.231 40.3353 415.112 40.6719L414.274 43.0781C413.616 42.8704 413.007 42.7666 412.448 42.7666C411.983 42.7666 411.646 42.9062 411.438 43.1855C411.231 43.4577 411.127 43.8086 411.127 44.2383V44.9902H413.963V47.4502ZM423.73 57L423.097 55.3672H423.011C422.459 56.0618 421.89 56.5452 421.303 56.8174C420.723 57.0824 419.964 57.2148 419.025 57.2148C417.872 57.2148 416.963 56.8854 416.297 56.2266C415.638 55.5677 415.309 54.6296 415.309 53.4121C415.309 52.1374 415.753 51.1992 416.641 50.5977C417.536 49.9889 418.882 49.6523 420.68 49.5879L422.764 49.5234V48.9971C422.764 47.7796 422.141 47.1709 420.895 47.1709C419.935 47.1709 418.807 47.4609 417.511 48.041L416.426 45.8281C417.808 45.1048 419.34 44.7432 421.023 44.7432C422.635 44.7432 423.87 45.0941 424.729 45.7959C425.589 46.4977 426.019 47.5648 426.019 48.9971V57H423.73ZM422.764 51.4355L421.496 51.4785C420.544 51.5072 419.835 51.679 419.369 51.9941C418.904 52.3092 418.671 52.7891 418.671 53.4336C418.671 54.3574 419.201 54.8193 420.261 54.8193C421.02 54.8193 421.625 54.6009 422.076 54.1641C422.535 53.7272 422.764 53.1471 422.764 52.4238V51.4355ZM438.16 57L437.72 55.4639H437.548C437.197 56.0225 436.699 56.4557 436.055 56.7637C435.41 57.0645 434.676 57.2148 433.853 57.2148C432.442 57.2148 431.378 56.8389 430.662 56.0869C429.946 55.3278 429.588 54.2393 429.588 52.8213V44.9902H432.864V52.0049C432.864 52.8714 433.018 53.5231 433.326 53.96C433.634 54.3896 434.125 54.6045 434.798 54.6045C435.715 54.6045 436.377 54.3001 436.785 53.6914C437.193 53.0755 437.397 52.0586 437.397 50.6406V44.9902H440.674V57H438.16ZM447.638 57H444.361V40.2852H447.638V57ZM456.396 54.6045C456.968 54.6045 457.656 54.4792 458.458 54.2285V56.667C457.642 57.0322 456.639 57.2148 455.45 57.2148C454.14 57.2148 453.184 56.8854 452.582 56.2266C451.988 55.5605 451.69 54.5651 451.69 53.2402V47.4502H450.122V46.0645L451.927 44.9688L452.872 42.4336H454.967V44.9902H458.329V47.4502H454.967V53.2402C454.967 53.7057 455.096 54.0495 455.354 54.2715C455.618 54.4935 455.966 54.6045 456.396 54.6045Z" fill="white"/>
</g>
<rect x="485.5" y="20" width="156" height="56" rx="4" fill="#217CBB"/>
<g clip-path="url(#clip1_6784_87177)">
<path d="M513.766 57.9336L511.566 55.7336L509.433 53.6002L507.233 51.4002L505.1 49.2669L505.966 48.3336L506.9 47.4002L507.833 46.5336L508.766 45.6002L509.966 46.8669L511.233 48.0669L512.5 49.3336L513.766 50.6002L516.9 47.4669L520.033 44.3336L523.166 41.2002L526.233 38.0669L527.166 39.0002L528.1 39.9336L529.033 40.8002L529.9 41.7336L525.9 45.8002L521.833 49.8669L517.766 53.8669L513.766 57.9336Z" fill="white"/>
<path d="M556.829 48.9971C556.829 51.5824 556.091 53.5625 554.616 54.9375C553.148 56.3125 551.025 57 548.246 57H543.799V41.2949H548.729C551.293 41.2949 553.284 41.9717 554.702 43.3252C556.12 44.6787 556.829 46.5693 556.829 48.9971ZM553.37 49.083C553.37 45.71 551.881 44.0234 548.901 44.0234H547.129V54.25H548.558C551.766 54.25 553.37 52.5277 553.37 49.083ZM565.05 47.0957C564.355 47.0957 563.811 47.3177 563.417 47.7617C563.023 48.1986 562.798 48.8216 562.74 49.6309H567.338C567.324 48.8216 567.112 48.1986 566.704 47.7617C566.296 47.3177 565.744 47.0957 565.05 47.0957ZM565.512 57.2148C563.578 57.2148 562.067 56.6813 560.979 55.6143C559.89 54.5472 559.346 53.0361 559.346 51.0811C559.346 49.0687 559.847 47.5146 560.85 46.4189C561.859 45.3161 563.252 44.7646 565.028 44.7646C566.726 44.7646 568.047 45.248 568.992 46.2148C569.938 47.1816 570.41 48.5173 570.41 50.2217V51.8115H562.665C562.701 52.7425 562.977 53.4694 563.492 53.9922C564.008 54.515 564.731 54.7764 565.662 54.7764C566.385 54.7764 567.069 54.7012 567.714 54.5508C568.358 54.4004 569.032 54.1605 569.733 53.8311V56.3662C569.16 56.6527 568.548 56.8639 567.896 57C567.245 57.1432 566.45 57.2148 565.512 57.2148ZM579.963 47.4502H577.127V57H573.851V47.4502H572.046V45.8711L573.851 44.9902V44.1094C573.851 42.7415 574.187 41.7425 574.86 41.1123C575.534 40.4821 576.611 40.167 578.094 40.167C579.225 40.167 580.231 40.3353 581.112 40.6719L580.274 43.0781C579.616 42.8704 579.007 42.7666 578.448 42.7666C577.983 42.7666 577.646 42.9062 577.438 43.1855C577.231 43.4577 577.127 43.8086 577.127 44.2383V44.9902H579.963V47.4502ZM589.73 57L589.097 55.3672H589.011C588.459 56.0618 587.89 56.5452 587.303 56.8174C586.723 57.0824 585.964 57.2148 585.025 57.2148C583.872 57.2148 582.963 56.8854 582.297 56.2266C581.638 55.5677 581.309 54.6296 581.309 53.4121C581.309 52.1374 581.753 51.1992 582.641 50.5977C583.536 49.9889 584.882 49.6523 586.68 49.5879L588.764 49.5234V48.9971C588.764 47.7796 588.141 47.1709 586.895 47.1709C585.935 47.1709 584.807 47.4609 583.511 48.041L582.426 45.8281C583.808 45.1048 585.34 44.7432 587.023 44.7432C588.635 44.7432 589.87 45.0941 590.729 45.7959C591.589 46.4977 592.019 47.5648 592.019 48.9971V57H589.73ZM588.764 51.4355L587.496 51.4785C586.544 51.5072 585.835 51.679 585.369 51.9941C584.904 52.3092 584.671 52.7891 584.671 53.4336C584.671 54.3574 585.201 54.8193 586.261 54.8193C587.02 54.8193 587.625 54.6009 588.076 54.1641C588.535 53.7272 588.764 53.1471 588.764 52.4238V51.4355ZM604.16 57L603.72 55.4639H603.548C603.197 56.0225 602.699 56.4557 602.055 56.7637C601.41 57.0645 600.676 57.2148 599.853 57.2148C598.442 57.2148 597.378 56.8389 596.662 56.0869C595.946 55.3278 595.588 54.2393 595.588 52.8213V44.9902H598.864V52.0049C598.864 52.8714 599.018 53.5231 599.326 53.96C599.634 54.3896 600.125 54.6045 600.798 54.6045C601.715 54.6045 602.377 54.3001 602.785 53.6914C603.193 53.0755 603.397 52.0586 603.397 50.6406V44.9902H606.674V57H604.16ZM613.638 57H610.361V40.2852H613.638V57ZM622.396 54.6045C622.968 54.6045 623.656 54.4792 624.458 54.2285V56.667C623.642 57.0322 622.639 57.2148 621.45 57.2148C620.14 57.2148 619.184 56.8854 618.582 56.2266C617.988 55.5605 617.69 54.5651 617.69 53.2402V47.4502H616.122V46.0645L617.927 44.9688L618.872 42.4336H620.967V44.9902H624.329V47.4502H620.967V53.2402C620.967 53.7057 621.096 54.0495 621.354 54.2715C621.618 54.4935 621.966 54.6045 622.396 54.6045Z" fill="white"/>
</g>
<defs>
<clipPath id="clip0_6784_87177">
<rect width="124" height="32" fill="white" transform="translate(335.5 32)"/>
</clipPath>
<clipPath id="clip1_6784_87177">
<rect width="124" height="32" fill="white" transform="translate(501.5 32)"/>
</clipPath>
</defs>
</svg>

<svg width="961" height="96" fill="none" xmlns="http://www.w3.org/2000/svg"><path fill="#353A40" d="M0 0h961v96H0z"/><rect x="319.5" y="20" width="156" height="56" rx="4" fill="#7D808D"/><g clip-path="url(#prefix__clip0_6784_87177)" fill="#fff"><path d="M362.033 41.6l-4.133-4.133-6.4 6.4-6.4-6.4-4.133 4.133 6.4 6.4-6.4 6.4 4.133 4.133 6.4-6.4 6.4 6.4 4.133-4.133-6.4-6.4 6.4-6.4zM390.829 48.997c0 2.585-.738 4.566-2.213 5.94-1.468 1.376-3.591 2.063-6.37 2.063h-4.447V41.295h4.93c2.564 0 4.555.677 5.973 2.03 1.418 1.354 2.127 3.244 2.127 5.672zm-3.459.086c0-3.373-1.489-5.06-4.469-5.06h-1.772V54.25h1.429c3.208 0 4.812-1.722 4.812-5.167zm11.68-1.987c-.695 0-1.239.222-1.633.666-.394.437-.619 1.06-.677 1.869h4.598c-.014-.81-.226-1.432-.634-1.87-.408-.443-.96-.665-1.654-.665zm.462 10.119c-1.934 0-3.445-.534-4.533-1.6-1.089-1.068-1.633-2.579-1.633-4.534 0-2.012.501-3.566 1.504-4.662 1.009-1.103 2.402-1.654 4.178-1.654 1.698 0 3.019.483 3.964 1.45.946.967 1.418 2.302 1.418 4.007v1.59h-7.745c.036.93.312 1.657.827 2.18.516.523 1.239.784 2.17.784.723 0 1.407-.075 2.052-.225.644-.15 1.318-.39 2.019-.72v2.535a7.526 7.526 0 01-1.837.634c-.651.143-1.446.215-2.384.215zm14.451-9.765h-2.836V57h-3.276v-9.55h-1.805v-1.579l1.805-.88v-.882c0-1.367.336-2.367 1.009-2.997.674-.63 1.751-.945 3.234-.945 1.131 0 2.137.168 3.018.505l-.838 2.406c-.658-.208-1.267-.311-1.826-.311-.465 0-.802.14-1.01.418-.207.273-.311.624-.311 1.053v.752h2.836v2.46zM423.73 57l-.633-1.633h-.086c-.552.695-1.121 1.178-1.708 1.45-.58.265-1.339.398-2.278.398-1.153 0-2.062-.33-2.728-.988-.659-.66-.988-1.597-.988-2.815 0-1.275.444-2.213 1.332-2.814.895-.61 2.241-.946 4.039-1.01l2.084-.065v-.526c0-1.217-.623-1.826-1.869-1.826-.96 0-2.088.29-3.384.87l-1.085-2.213c1.382-.723 2.914-1.085 4.597-1.085 1.612 0 2.847.351 3.706 1.053.86.702 1.29 1.769 1.29 3.201V57h-2.289zm-.966-5.565l-1.268.043c-.952.03-1.661.201-2.127.516-.465.315-.698.795-.698 1.44 0 .923.53 1.385 1.59 1.385.759 0 1.364-.218 1.815-.655.459-.437.688-1.017.688-1.74v-.989zM438.16 57l-.44-1.536h-.172c-.351.559-.849.992-1.493 1.3-.645.3-1.379.45-2.202.45-1.411 0-2.475-.375-3.191-1.127-.716-.76-1.074-1.848-1.074-3.266v-7.83h3.276v7.014c0 .866.154 1.518.462 1.955.308.43.799.645 1.472.645.917 0 1.579-.305 1.987-.914.408-.616.612-1.632.612-3.05v-5.65h3.277V57h-2.514zm9.478 0h-3.277V40.285h3.277V57zm8.758-2.395c.572 0 1.26-.126 2.062-.377v2.439c-.816.365-1.819.548-3.008.548-1.31 0-2.266-.33-2.868-.988-.594-.666-.892-1.662-.892-2.987v-5.79h-1.568v-1.386l1.805-1.095.945-2.535h2.095v2.556h3.362v2.46h-3.362v5.79c0 .466.129.81.387 1.032.264.221.612.333 1.042.333z"/></g><rect x="485.5" y="20" width="156" height="56" rx="4" fill="#217CBB"/><g clip-path="url(#prefix__clip1_6784_87177)" fill="#fff"><path d="M513.766 57.934l-2.2-2.2-2.133-2.134-2.2-2.2-2.133-2.133.866-.933.934-.934.933-.866.933-.934 1.2 1.267 1.267 1.2 1.267 1.267 1.266 1.266 3.134-3.133 3.133-3.133 3.133-3.134 3.067-3.133.933.933.934.934.933.866.867.934-4 4.066-4.067 4.067-4.067 4-4 4.067zM556.829 48.997c0 2.585-.738 4.566-2.213 5.94-1.468 1.376-3.591 2.063-6.37 2.063h-4.447V41.295h4.93c2.564 0 4.555.677 5.973 2.03 1.418 1.354 2.127 3.244 2.127 5.672zm-3.459.086c0-3.373-1.489-5.06-4.469-5.06h-1.772V54.25h1.429c3.208 0 4.812-1.722 4.812-5.167zm11.68-1.987c-.695 0-1.239.222-1.633.666-.394.437-.619 1.06-.677 1.869h4.598c-.014-.81-.226-1.432-.634-1.87-.408-.443-.96-.665-1.654-.665zm.462 10.119c-1.934 0-3.445-.534-4.533-1.6-1.089-1.068-1.633-2.579-1.633-4.534 0-2.012.501-3.566 1.504-4.662 1.009-1.103 2.402-1.654 4.178-1.654 1.698 0 3.019.483 3.964 1.45.946.967 1.418 2.302 1.418 4.007v1.59h-7.745c.036.93.312 1.657.827 2.18.516.523 1.239.784 2.17.784.723 0 1.407-.075 2.052-.225.644-.15 1.318-.39 2.019-.72v2.535a7.526 7.526 0 01-1.837.634c-.651.143-1.446.215-2.384.215zm14.451-9.765h-2.836V57h-3.276v-9.55h-1.805v-1.579l1.805-.88v-.882c0-1.367.336-2.367 1.009-2.997.674-.63 1.751-.945 3.234-.945 1.131 0 2.137.168 3.018.505l-.838 2.406c-.658-.208-1.267-.311-1.826-.311-.465 0-.802.14-1.01.418-.207.273-.311.624-.311 1.053v.752h2.836v2.46zM589.73 57l-.633-1.633h-.086c-.552.695-1.121 1.178-1.708 1.45-.58.265-1.339.398-2.278.398-1.153 0-2.062-.33-2.728-.988-.659-.66-.988-1.597-.988-2.815 0-1.275.444-2.213 1.332-2.814.895-.61 2.241-.946 4.039-1.01l2.084-.065v-.526c0-1.217-.623-1.826-1.869-1.826-.96 0-2.088.29-3.384.87l-1.085-2.213c1.382-.723 2.914-1.085 4.597-1.085 1.612 0 2.847.351 3.706 1.053.86.702 1.29 1.769 1.29 3.201V57h-2.289zm-.966-5.565l-1.268.043c-.952.03-1.661.201-2.127.516-.465.315-.698.795-.698 1.44 0 .923.53 1.385 1.59 1.385.759 0 1.364-.218 1.815-.655.459-.437.688-1.017.688-1.74v-.989zM604.16 57l-.44-1.536h-.172c-.351.559-.849.992-1.493 1.3-.645.3-1.379.45-2.202.45-1.411 0-2.475-.375-3.191-1.127-.716-.76-1.074-1.848-1.074-3.266v-7.83h3.276v7.014c0 .866.154 1.518.462 1.955.308.43.799.645 1.472.645.917 0 1.579-.305 1.987-.914.408-.616.612-1.632.612-3.05v-5.65h3.277V57h-2.514zm9.478 0h-3.277V40.285h3.277V57zm8.758-2.395c.572 0 1.26-.126 2.062-.377v2.439c-.816.365-1.819.548-3.008.548-1.31 0-2.266-.33-2.868-.988-.594-.666-.892-1.662-.892-2.987v-5.79h-1.568v-1.386l1.805-1.095.945-2.535h2.095v2.556h3.362v2.46h-3.362v5.79c0 .466.129.81.387 1.032.264.221.612.333 1.042.333z"/></g><defs><clipPath id="prefix__clip0_6784_87177"><path fill="#fff" transform="translate(335.5 32)" d="M0 0h124v32H0z"/></clipPath><clipPath id="prefix__clip1_6784_87177"><path fill="#fff" transform="translate(501.5 32)" d="M0 0h124v32H0z"/></clipPath></defs></svg>
